kwork_juristConsalt/img/svg/Payouts.svg

<svg width="180" height="180" viewBox="0 0 180 180" fill="none" xmlns="http://www.w3.org/2000/svg">
<g clip-path="url(#clip0)">
<rect width="180" height="180" rx="90" fill="white"/>
<path fill-rule="evenodd" clip-rule="evenodd" d="M128.232 205.123C123.778 212.732 124.575 223.671 117.481 228.782C110.41 233.875 100.967 230.783 92.4893 230.872C84.0982 230.96 73.4385 235.49 67.865 229.302C61.7328 222.493 70.232 209.838 66.0924 201.563C62.2124 193.808 49.9225 193.863 46.2097 186.017C42.0897 177.31 41.1312 166.24 45.052 157.099C49.0408 147.799 57.3667 137.574 67.1407 137.216C78.2658 136.808 83.3527 152.573 94.034 155.304C100.775 157.028 107.098 148.968 114.098 149.223C123.266 149.558 133.878 150.029 139.798 156.976C145.658 163.852 145.908 174.845 143.715 183.975C141.646 192.588 132.726 197.449 128.232 205.123Z" fill="#1C3C89"/>
</g>
<defs>
<clipPath id="clip0">
<rect width="180" height="180" rx="90" fill="white"/>
</clipPath>
</defs>
</svg>

<svg width="180" height="180" fill="none" xmlns="http://www.w3.org/2000/svg"><g clip-path="url(#clip0)"><rect width="180" height="180" rx="90" fill="#fff"/><path fill-rule="evenodd" clip-rule="evenodd" d="M128.232 205.123c-4.454 7.609-3.657 18.548-10.751 23.659-7.071 5.093-16.514 2.001-24.992 2.09-8.39.088-19.05 4.618-24.624-1.57-6.132-6.809 2.367-19.464-1.773-27.739-3.88-7.755-16.17-7.7-19.882-15.546-4.12-8.707-5.079-19.777-1.158-28.918 3.989-9.3 12.315-19.525 22.089-19.883 11.125-.408 16.212 15.357 26.893 18.088 6.741 1.724 13.064-6.336 20.064-6.081 9.168.335 19.78.806 25.7 7.753 5.86 6.876 6.11 17.869 3.917 26.999-2.069 8.613-10.989 13.474-15.483 21.148z" fill="#1C3C89"/></g><defs><clipPath id="clip0"><rect width="180" height="180" rx="90" fill="#fff"/></clipPath></defs></svg>
